svg/blobs-icons/no-decorations/paint-palette.svg

<svg xmlns="http://www.w3.org/2000/svg" xmlns:xlink="http://www.w3.org/1999/xlink" preserveAspectRatio="xMidYMid" width="217" height="200" viewBox="0 0 217 200"><defs><style>.cls-3{fill:#fbb713}.cls-4{fill:#020403;opacity:.25}.cls-5{fill:#020403;opacity:.35}.cls-7{fill:#0cb04a}.cls-9{fill:#2476ff}.cls-12{fill:#ff3a2f}</style></defs><g id="group-98svg"><path d="M185.108 15.188c42.347 42.346 42.347 111.01.0 153.363-42.348 42.344-111.006 42.344-153.355.0-42.345-42.353-42.345-111.017.0-153.363 20.254-20.255 53.091-20.255 73.345.0l40.006 40.01C148.783 58.879 154.759 58.879 158.438 55.198 162.122 51.512 162.122 45.544 158.438 41.861c-7.362-7.367-7.362-19.306.0-26.673C165.8 7.825 177.743 7.825 185.108 15.188z" id="path-1" class="cls-3" fill-rule="evenodd"/><path d="M86.239 10.473s40.006 40.01 40.006 40.01c3.679 3.681 19.085 13.11 22.763 9.429C149.147 59.774 149.245 59.611 149.373 59.466L105.098 15.188C95.719 5.809 83.638.829 71.361.138c5.38 2.492 10.441 5.898 14.878 10.335z" id="path-2" class="cls-4" fill-rule="evenodd"/><path d="M185.108 15.188c-5.089-5.088-12.343-6.574-18.783-4.631C208.591 52.911 208.569 121.51 166.249 163.837c-25.459 25.455-60.413 35.49-93.456 30.339 38.037 13.215 81.931 4.756 112.315-25.625 42.347-42.353 42.347-111.017.0-153.363z" id="path-3" class="cls-5" fill-rule="evenodd"/><path d="M63.14 133.257c5.52-5.521 14.48-5.521 20.001.0C88.666 138.776 88.666 147.737 83.141 153.258 77.62 158.783 68.66 158.783 63.14 153.258 57.62 147.737 57.62 138.776 63.14 133.257z" id="path-4" class="cls-5" fill-rule="evenodd"/><path d="M58.425 128.541c5.521-5.52 14.48-5.52 20.001.0C83.951 134.062 83.951 143.022 78.426 148.543 72.905 154.069 63.946 154.069 58.425 148.543c-5.52-5.52100000000002-5.52-14.481.0-20.002z" id="path-5" class="cls-7" fill-rule="evenodd"/><path d="M53.807 85.201C57.491 88.885 57.491 94.851 53.807 98.535 50.124 102.22 44.157 102.22 40.474 98.535 36.788 94.851 36.788 88.885 40.474 85.201 44.157 81.52 50.124 81.52 53.807 85.201z" id="path-6" class="cls-5" fill-rule="evenodd"/><path d="M49.092 85.201C52.776 88.885 52.776 94.851 49.092 98.535c-3.683 3.685-9.65 3.685-13.333.0C32.073 94.851 32.073 88.885 35.759 85.201c3.683-3.681 9.65-3.681 13.333.0z" id="path-7" class="cls-9" fill-rule="evenodd"/><path d="M119.82 163.264C114.297 157.744 114.293 148.787 119.82 143.262 125.338 137.741 134.298 137.741 139.818 143.262 145.346 148.787 145.346 157.744 139.818 163.264c-5.52500000000001 5.524-14.475 5.524-19.998.0z" id="path-8" class="cls-5" fill-rule="evenodd"/><path d="M86.474 36.575c7.365 7.357 7.365 19.306.0 26.67C79.119 70.605 67.169 70.605 59.806 63.245c-7.361-7.364-7.361-19.313.0-26.67 7.363-7.363 19.313-7.363 26.668.0z" id="path-9" class="cls-5" fill-rule="evenodd"/><path d="M81.759 31.861c7.365 7.357 7.365 19.305.0 26.67C74.404 65.891 62.454 65.891 55.092 58.531c-7.362-7.365-7.362-19.313.0-26.67 7.362-7.363 19.312-7.363 26.667.0z" id="path-10" class="cls-12" fill-rule="evenodd"/><path d="M115.105 158.548C109.583 153.029 109.577 144.072 115.105 138.547 120.623 133.028 129.583 133.028 135.104 138.547 140.631 144.072 140.631 153.029 135.104 158.548 129.579 164.074 120.628 164.074 115.105 158.548z" id="path-11" class="cls-12" fill-rule="evenodd"/></g></svg>

<svg xmlns="http://www.w3.org/2000/svg" xmlns:xlink="http://www.w3.org/1999/xlink" preserveAspectRatio="xMidYMid" width="217" height="200" viewBox="0 0 217 200">
  <defs>
    <style>

      .cls-3 {
        fill: #fbb713;
      }

      .cls-4 {
        fill: #020403;
        opacity: 0.25;
      }

      .cls-5 {
        fill: #020403;
        opacity: 0.35;
      }

      .cls-7 {
        fill: #0cb04a;
      }

      .cls-9 {
        fill: #2476ff;
      }

      .cls-12 {
        fill: #ff3a2f;
      }
    </style>
  </defs>
  <g id="group-98svg">
    <path d="M185.108,15.188 C227.455,57.534 227.455,126.198 185.108,168.551 C142.760,210.895 74.102,210.895 31.753,168.551 C-10.592,126.198 -10.592,57.534 31.753,15.188 C52.007,-5.067 84.844,-5.067 105.098,15.188 C105.098,15.188 145.104,55.198 145.104,55.198 C148.783,58.879 154.759,58.879 158.438,55.198 C162.122,51.512 162.122,45.544 158.438,41.861 C151.076,34.494 151.076,22.555 158.438,15.188 C165.800,7.825 177.743,7.825 185.108,15.188 Z" id="path-1" class="cls-3" fill-rule="evenodd"/>
    <path d="M86.239,10.473 C86.239,10.473 126.245,50.483 126.245,50.483 C129.924,54.164 145.330,63.593 149.008,59.912 C149.147,59.774 149.245,59.611 149.373,59.466 C149.373,59.466 105.098,15.188 105.098,15.188 C95.719,5.809 83.638,0.829 71.361,0.138 C76.741,2.630 81.802,6.036 86.239,10.473 Z" id="path-2" class="cls-4" fill-rule="evenodd"/>
    <path d="M185.108,15.188 C180.019,10.100 172.765,8.614 166.325,10.557 C208.591,52.911 208.569,121.510 166.249,163.837 C140.790,189.292 105.836,199.327 72.793,194.176 C110.830,207.391 154.724,198.932 185.108,168.551 C227.455,126.198 227.455,57.534 185.108,15.188 Z" id="path-3" class="cls-5" fill-rule="evenodd"/>
    <path d="M63.140,133.257 C68.660,127.736 77.620,127.736 83.141,133.257 C88.666,138.776 88.666,147.737 83.141,153.258 C77.620,158.783 68.660,158.783 63.140,153.258 C57.620,147.737 57.620,138.776 63.140,133.257 Z" id="path-4" class="cls-5" fill-rule="evenodd"/>
    <path d="M58.425,128.541 C63.946,123.021 72.905,123.021 78.426,128.541 C83.951,134.062 83.951,143.022 78.426,148.543 C72.905,154.069 63.946,154.069 58.425,148.543 C52.905,143.022 52.905,134.062 58.425,128.541 Z" id="path-5" class="cls-7" fill-rule="evenodd"/>
    <path d="M53.807,85.201 C57.491,88.885 57.491,94.851 53.807,98.535 C50.124,102.220 44.157,102.220 40.474,98.535 C36.788,94.851 36.788,88.885 40.474,85.201 C44.157,81.520 50.124,81.520 53.807,85.201 Z" id="path-6" class="cls-5" fill-rule="evenodd"/>
    <path d="M49.092,85.201 C52.776,88.885 52.776,94.851 49.092,98.535 C45.409,102.220 39.442,102.220 35.759,98.535 C32.073,94.851 32.073,88.885 35.759,85.201 C39.442,81.520 45.409,81.520 49.092,85.201 Z" id="path-7" class="cls-9" fill-rule="evenodd"/>
    <path d="M119.820,163.264 C114.297,157.744 114.293,148.787 119.820,143.262 C125.338,137.741 134.298,137.741 139.818,143.262 C145.346,148.787 145.346,157.744 139.818,163.264 C134.293,168.788 125.343,168.788 119.820,163.264 Z" id="path-8" class="cls-5" fill-rule="evenodd"/>
    <path d="M86.474,36.575 C93.839,43.932 93.839,55.881 86.474,63.245 C79.119,70.605 67.169,70.605 59.806,63.245 C52.445,55.881 52.445,43.932 59.806,36.575 C67.169,29.212 79.119,29.212 86.474,36.575 Z" id="path-9" class="cls-5" fill-rule="evenodd"/>
    <path d="M81.759,31.861 C89.124,39.218 89.124,51.166 81.759,58.531 C74.404,65.891 62.454,65.891 55.092,58.531 C47.730,51.166 47.730,39.218 55.092,31.861 C62.454,24.498 74.404,24.498 81.759,31.861 Z" id="path-10" class="cls-12" fill-rule="evenodd"/>
    <path d="M115.105,158.548 C109.583,153.029 109.577,144.072 115.105,138.547 C120.623,133.028 129.583,133.028 135.104,138.547 C140.631,144.072 140.631,153.029 135.104,158.548 C129.579,164.074 120.628,164.074 115.105,158.548 Z" id="path-11" class="cls-12" fill-rule="evenodd"/>
  </g>
</svg>
